svgs/regular/bars-staggered.svg

<svg xmlns="http://www.w3.org/2000/svg" viewBox="0 0 512 512"><!--! Font Awesome Pro 6.3.0 by @fontawesome - https://fontawesome.com License - https://fontawesome.com/license (Commercial License) Copyright 2023 Fonticons, Inc. --><path d="M0 88C0 74.7 10.7 64 24 64H424c13.3 0 24 10.7 24 24s-10.7 24-24 24H24C10.7 112 0 101.3 0 88zM64 248c0-13.3 10.7-24 24-24H488c13.3 0 24 10.7 24 24s-10.7 24-24 24H88c-13.3 0-24-10.7-24-24zM448 408c0 13.3-10.7 24-24 24H24c-13.3 0-24-10.7-24-24s10.7-24 24-24H424c13.3 0 24 10.7 24 24z"/></svg>

<svg xmlns="http://www.w3.org/2000/svg" viewBox="0 0 512 512"><!--! Font Awesome Pro 6.2.0 by @fontawesome - https://fontawesome.com License - https://fontawesome.com/license (Commercial License) Copyright 2022 Fonticons, Inc. --><path d="M0 88C0 74.75 10.75 64 24 64H424C437.3 64 448 74.75 448 88C448 101.3 437.3 112 424 112H24C10.75 112 0 101.3 0 88zM64 248C64 234.7 74.75 224 88 224H488C501.3 224 512 234.7 512 248C512 261.3 501.3 272 488 272H88C74.75 272 64 261.3 64 248zM424 432H24C10.75 432 0 421.3 0 408C0 394.7 10.75 384 24 384H424C437.3 384 448 394.7 448 408C448 421.3 437.3 432 424 432z"/></svg>
